X:1
T:Querflöte Sonate h-moll, HWV 376 für Querflöte und bezifferten BaB (Hallenser Sonate Nr. 3)
T:Querflöte Sonate h-moll, HWV 376
T:für Querflöte und bezifferten Baß (Hallenser Sonate Nr. 3) Transcribed for Rec, Bsn, Hch in d-moll from IMSLP#303425 PDF File
T:George Frideric Handel (1685 — 1759)
T:Public Domain
T:Public Domain
T:Public Domain
T:Public Domain
T:Public Domain
T:Public Domain
T:Public Domain
C:George Frideric Handel (1685 — 1759)
Z:Public Domain
%%score [ 1 2 ] { ( 3 4 6 7 ) | 5 }
L:1/8
Q:1/4=50
M:4/4
K:F
V:1 treble nm="Alto Recorder" snm="A. Rec."
V:2 bass nm="Fagotto" snm="Bsn."
V:3 treble nm="Harpsichord" snm="Hch."
V:4 treble 
V:6 treble 
V:7 treble 
V:5 bass 
V:1
"^Adagio" z8 | z8 | a2- a/a/g/f/ ef d/f/e/d/ | ^cA z/ f/e/d/ g2- g/e/a/g/ | %4
 f/e/d/d'/ c'>b af z d'/>a/ | b/a/g/f'/ e'>d' ^c'a z/ d'/c'/d'/ | (g/a/)(f/e/) e>d d2 z A | %7
 e/A/g/e/ ba/g/ fd z a | ^g/e/=b/g/ f'e'/d'/ c'a z f/e/ | fed>e e2 z/ c/=B/A/ | %10
 ^G/=B/c/d/ B>A A2 z a/>=g/ | ^f/d/c'/c'/ c'/a/d'/c'/ b/a/g z/ a/g/=f/ | %12
 e/c/e/g/ ba/g/ a/g/f- f_e | dg-gf ec z/ c'/_b/a/ | b/g/a/f/ e>f f2 z/ a/g/f/ | %15
 e/c/g/e/ b/g/c'/b/ a/g/f z/ f/e/d/ | ^c/A/c/e/ g/e/a/g/ fd z a/>e/ | f/g/a/b/ g>a a2 z/ ^f/g/a/ | %18
 b/a/g/f'/ e'>d' ^c'a z/ e'/d'/e'/ | f'/e'/d'/e'/ ^c'>d' g/f/g g2- | g/a/f/e/ e>d d4 || %21
[M:2/2]"^Allegro"[Q:1/2=120] d4 e4 | f4 g4 | a2 =b^c' d'2 d'2 | ^c'2 =b2 a4 | (d'c'ba) b2 g2 | %26
 ^f2 g4 b2 | (c'bag) a2 f2 | e2 f4 a2 | (bagf) e2 d2 | ^c4 A2 e2 | f2 a2 g2 b2 | a2 c'2 =b2 d'2 | %33
 ^c'2 a2 d'2 d2 | Te6 d2 | d4 b4- | b4 a4- | a4 g4 | a8 :: f4 g4 | a4 b4 | c'2 d'e' f'2 f'2 | %42
 e'2 d'2 c'4 | (fgab) c'2 _e2 | (f_edc) d2 B2 | (ga=bc') d'2 f2 | gfed e2 c2 | c2 d'2 c'2 g2 | %48
 _a2 g4 c2 | c2 d'2 c'2 e2 | f2 e4 c2 | d2 g2 e2 dc | f2 a2 g2 c'2 | a2 d'2 =b2 c'2 | cdef g2 a2 | %55
 ba b4 ag | agfg c2 e2 | f4 z4 | ag^fe d2 c'2- | c'2 ba bdef | (gfed) c2 b2- | b2 ag agfg | %62
 agfe d2 a2- | a2 gf gfef | (gfed) ^c2 g2- | g2 fe f2 ^c2 | d2 ba gfed | ^c2 A2 A4 | d4 e4 | %69
 f4 g4 | a2 =b^c' d'2 d'2 | ^c'2 a2 d'2 =b2 | ^c'6 d'2 | d'4 b4- | b4 a4- | a4 g4- | g2 a2 f2 e2 | %77
 f4 e3 d | d8 :| x/8 |[M:3/4]"^Largo"[Q:1/4=50] c2 (dc)(dc) | d2 c2 z2 | fd B3 A | Ag(ag)(ag) | %84
 (fd)(gf)(ed) | cd d3 c | c4 f2 | (df) (ba) (bd) | ^ce a4- | ad g4- | gc f4- | f2 e2 d2 | ^c3 eag | %93
 fd e3 d | d4 e2 | fg g3 a | a6 |][M:3/8]"^Allegro"[Q:3/8=50] abd | ^cd z | d'c'/b/a/g/ | a/g/f z | %101
 z ba | gaf | ed/^c/d/e/ | ^c/_b/a/e/f/d/ | ^c/b/a/e/f/d/ | ^c/b/a/g/f/e/ | f/a/d'/c'/b/a/ | %108
 b/a/g/f'/e'/d'/ | ^c'aa | b=b>b | c'^c'>c' | d'd/e/f/d/ | g3 | g>af/e/ | f/g<ed/ | d b2 | %117
 ba/g/a- | a/b<ga/ | a3 :: c'd'f | ef z | f'e'/d'/c'/b/ | a/g/f z | f_e/d/e/c/ | d/c/B/c/d/B/ | %126
 gf/e/f/g/ | e/d'/c'/g/a/f/ | e/d'/c'/g/a/f/ | ec z | cde | fgb | a/d'<=bc'/ | c'>_ba/g/ | %134
 a/b<gf/ | f/a/f/g/a/=b/ | c'/c/f/e/f/g/ | e2 e | a/g/f/e/d/c/ | d>ec/=B/ | c/d<=BB/ | A2 z | %142
 d'_e'g | ^fg z | c'd'f | ef z | z ba | gaf | ed/^c/d/e/ | ^cAA | B=B>B | c^c>c | d^ff | gab | %154
 a>gf/e/ | f/g<ed/ | d b2- | bea- | adg- | g>af/e/ | f/g<ed/ | dfg | ad'^c' | d'd z :| %164
V:2
 DD, z/ F/E/>D/ ^CDTB,>A, | A,A,, z/ A,/=B,/^C/ D/A,/_B,/G,/ A,A,, | DD, z/ F/E/D/ ^CDB,G, | %3
 A,/>^C/D/>E/ A,2 z/ F/E/D/ CA, | DD, E,/>C,/D,/>E,/ F,G,A,F, | G,B,/A,/ ^G,E, A,=B, ^C/F/E/D/ | %6
 ^C/A,/D/G,/ A,A,, D,E,F,D, | ^C,2 z/ A,/=B,/^C/ DD,/E,/ F,D, | E,2 z/ E,/^F,/^G,/ A,=B,=CA, | %9
 ^G,A,F,>F, E,/C/=B,/A,/ G,/A,/G,/^F,/ | E,A,EE, A,=B,CA, | D2 z ^F, G,/A,/G,/=F,/ E,/F,/E,/D,/ | %12
 C,2 z C F/F,/F,/G,/ A,/F,/G,/A,/ | B,,/G,/G,/A,/ =B,/G,/A,/B,/ C/C,/D,/E,/ F,/A,/G,/F,/ | %14
 E,F,CC, F,G,A,F, | C2 z/ C,/D,/E,/ F,G,A,D, | A,2 z/ A,/=B,/^C/ D/D,/D,/D/ C/E/A,/C/ | %17
 DCB,B,, A,,/A,/=B,/^C/ D/D,/E,/^F,/ | G,_B,/A,/ ^G,E, A,=B,^CA, | DF/G/ AA, _B,2 z/ F/E/D/ | %20
 ^C/A,/D/(G,/ A,)A,, D,4 ||[M:2/2] D,2 D2 ^C2 A,2 | D2 D,2 E,2 E2 | F,2 G,A, B,2 G,2 | %24
 A,2 A,,2 A,2 G,2 | ^F,2 D,2 G,2 C2 | D2 G,A, B,2 G,2 | E,2 C,2 F,2 B,2 | C2 F,G, A,2 F,2 | %29
 G,2 B,A, G,2 B,2 | A,2 G,2 F,2 E,2 | D,4 E,4 | F,4 G,4 | A,2 G,2 F,2 G,2 | A,4 A,,4 | D,4 z2 D2 | %36
 C2 C,2 C2 B,A, | B,2 B,,2 B,2 A,G, | A,8 :: F,2 F2 E2 C2 | F2 F,2 G,2 E2 | A,2 B,C D2 B,2 | %42
 C2 C,2 C2 B,2 | A,4 F,4 | B,,4 z4 | =B,4 G,4 | C4 z4 | z4 z2 E2 | F2 C2 z4 | z4 z2 C,2 | %50
 F,2 C,2 z2 F,2 | B,,4 C,4 | D,4 E,4 | F,4 D,4 | C,4 z2 C2 | G2 F2 E2 C2 | F2 B,2 C2 C,2 | %57
 F,2 G,2 A,2 F,2 | D,4 ^F,4 | G,4 z4 | C,4 E,4 | F,4 z4 | =B,4 D4 | z8 | A,4 ^C4 | D4 z2 A,2 | %66
 B,2 G,A, B,2 G,2 | A,D^C=B, A,G,F,E, | D,2 D2 ^C2 A,2 | D2 D,2 E,2 E2 | F,2 G,A, B,2 G,2 | %71
 A,2 F,2 B,2 G,2 | A,4 A,,4 | D,4 D2 CB, | C2 C,2 C2 B,A, | B,2 B,,2 B,2 A,G, | A,2 ^C2 D2 G,2 | %77
 A,4 A,,4 | D,8 :| z/8 |[M:3/4] F,2 F,2 F,2 | F,E,F,G,A,G, | F,2 D,2 E,2 | (F,C)(FE)(FC) | %84
 =B,2 G,2 C2 | F,2 G,2 G,,2 | C,CA,G,A,F, | B,4 G,2 | A,2 z A,D=C | B,2 z G,CB, | A,2 z F,B,A, | %91
 G,4 E,2 | A,2 E2 ^C2 | DG, A,2 A,,2 | D,4 A,2 | DC B,3 B, | A,6 |][M:3/8] DG,B, | A,D, z | FEC | %100
 FF,E, | D,DC | B,2 A, | G,B,G, | A,^CD | A,^CD | A,^C,A,, | D,^F,D, | G,E,^G, | A,D,D, | G,GF | %111
 EA,G, | F,2 z | z E/D/^C/=B,/ | A,^CD | G, A, z | D,G,B, | CC,F, | B,,B,G, | A,3 :: F,B,G, | %121
 CF, z | FGE | F/F,/A,/F,/C/C,/ | F,G,A, | B,B,, z | G,A,=B, | CEF | CEF | C/C,/E,/G,/C,/E,/ | %130
 F,B,G, | A,C,E, | F,D,G, | E,C,F, | B,CC, | F,2 z | z/ F,/(A,/G,/)A,/B,/ | C,/C/E/D/C/B,/ | %138
 A,2 D, | E,^G,A, | DEE, | A,,A,^F, | G,CB, | DG,/C,/D,/E,/ | F,B,G, | CF,/(G,/F,/)E,/ | D,DC | %147
 B,2 (A, | G,)B,G, | A,D,D, | G,GF | EA,G, | F,D,D, | G,^F,G, | ^C,A,,D, | G,A,A,, | D,G,B, | %157
 CC,F, | B,B,,E, | A,^CA, | DA,A,, | D,2 z | z F,A, | D,2 z :| %164
V:3
 ([fa-]2 [fa]/)a/g/>f/ e[df] d/f/e/d/ | ^c2- c/c/d/e/ f/a/g/e/ [^ce]2 | %2
 [Ad]2 z/ d/[^ce]/[df]/ ed d2 | ^c/>e/[df]/>g/ c2 z/ A/c/d/ e[ce] | %4
 .[df]2 g/>e/f/>g/ [cf]c[cf][da] | [dg]d e[e^g] [ea]e a=g/f/ | e/^c/d [Ac]2 [FAd]d/c/ dA | %7
 [Ae]2 z/ ^c/d/e/ [df]Ad[df] | [=Be]2 z/ ^G/A/B/ =cdec | fe d2 ed/c/ =B/c/d | [=Be]c B2 cdee | %11
 ^f2 z a gdc[Bd] | [ce]2 z [ce] [cf]2 [cf]c | [cd][Bd]/c/ d/=B/c/d/ [ce]c[cf]f | %14
 c[Acf] [ce]2 [cf]2 [cf]2 | [ce]2 z/ c3/2 ABcd | [A^c]2 z/ c/d/e/ [df]de[ea] | %17
 [df]e d2 ^c/c/d/e/ ^fd | dd e[e^g] [ea]e a/=g/f/e/ | dd/e/ e-[ea] g2 z/ G3/2 | %20
 e/^c/d [Ac]2 [Ad]4 ||[M:2/2] A4 e4 | f4 [^ce]4 | [Ad]4 [Gd]4 | [A^c]4 [ce]4 | d2 ^f2 g2 g2 | %26
 ^f2 g4 g2 | g2 e2 f2 f2 | e2 f4 e2 | d2 d2 e2 g2 | a2 [^ce]2 d2 [ce]2 | [df]4 ^c4 | [Ad]4 =B4 | %33
 [A^c]4 d4 | d4 ^c4 | [Ad]4 z2 [Bf]2 | [Be]4 e2 dc | d4 d4 | [A^c]8 :: =c4 c4 | %40
 !arpeggio![Acf]4 e2 g2 | f2 fe [df]4 | [ce]4 [ce]4 | [cf]4 [c_e]4 | [Bd]4 z4 | d4 f4 | e4 z4 | %47
 z4 z2 [cg]2 | [cf]2 [ce]2 z4 | z4 z2 c2 | c4 z2 c2 | d4 e4 | [Ad]4 c4 | [Ac]4 [=Bd]4 | %54
 [ce]4 z2 e2 | d4 g2 e2 | f2 f2 f2 e2 | f4 c2 f2 | [d^f]4 d4 | [dg]4 z4 | e4 [cg]4 | [cf]4 z4 | %62
 [df]4 [=Bf]4 | c4 z4 | [^ce]4 [Ae]4 | [Ad]4 z2 [A^c]2 | [Gd]2 g^f g2 [gb]2 | [ea]2 ed ^c2 dc | %68
 d4 e4 | f4 e4 | d4 d4 | ^c2 d4 [de]2 | e8 | [Ad]4 [_Bf]4 | [ce]4 [Ae]4 | [Bd]4 [Gd]4 | %76
 ^c2 [Ae]2 d4 | d4 [A^c]4 | d8 :| z/8 |[M:3/4] A2 BAB[Ac] | [Bd]2 [Ac]2 ce | f4 c2 | cB c2 c2 | %84
 d2 =B2 c2 | c2 c2 =B2 | c2 cBcA | d4 [Bd]2 | [A^c]2 [ce]2 [df][ea] | a2 g2 eg | g2 f2 df | %91
 f2 e2 d2 | ^c4 [Ae]2 | d2 [A^c]4 | [Ad]4 ^c2 | d4 d2 | ^c6 |][M:3/8] d2 d | ^cd z | dge | [cf]cc | %101
 dBc | d2 d | edd | ^ced | ^ced | [A^c]Ac | [Ad]d^f | !arpeggio![Bd]2 e | [^ce][df][fa] | [dg]2 g | %111
 gaa | a2 z | z g/f/e/d/ | ^ce[df] | [ce]/e/ e2 | [df]g>f | e2 [fa] | age | e3 :: f2 !tenuto!f | %121
 ef z | feg | afe | f_ee | [Bd]2 z | dfd | e[cg][cf] | egf | ecg | f2 e | feg | afd | cef | ffe | %135
 f2 z | z/ A/c-c | eg/f/e/d/ | c2 f | =B2 c | c =B2 | [Ac]2 d | [Bd]_eg | (^fg)g | =f2 (f | %145
 e)f[Ac] | B2 [Ac] | ([Gd]2 f) | e2 d | [A^c]d>=c | B[=Bd][dg] | c^c[ce] | d [d^f]2 | [Bdg]d[Bd] | %154
 e^cd | [Bd] [A^c]2 | d2 [dg] | [ce]2 [cf] | [Bd]2 [^ce] | [^ce][eg][ce] | dd^c | d2 z | z d^c | %163
 d2 z :| %164
V:4
 [Ad]2- ([Ad][G^c]/>)[Ad]/ A2 G[GB] | [EA-]2 A/A/A A/=c/d/B/ AG | F2 x/ A/G/A/ AFGB | %3
 AA/G/4 x/4 A2 x/ A/G/F/ AA | A2 [Gc]2 ABcA | .Bd/c/ =BB ^cd e/A/A | [EA][FA]/[FA]/ EG FGAF | %7
 E2 x/ A3/2 AF/G/ AA | ^G2 x/ E3/2 E2 [EA]A | =Bc A2 [GB]/A/G/A/ E>A | ^GAAG [EA]3 [Ac] | %11
 [Ad]2 x [Ad] [Bd][GB][Gc]G | G2 x G AA/B/ cF | F G2 G GF/G/ A_B/A/ | B2 G2 ABcA | %15
 G2 x/ E/F/G/ F3 [FA] | E2 x/ A3/2 A[FA]A^c | AAA[DG] [EA]<A A^c | Bd/c/ =BB ^cdec | %19
 [FA]A/B/ ^c2 d2 x/ d/c/[_Bd]/ | [EA][FA]/[GB]/ EF/G/ F4 ||[M:2/2] F4 [GA]4 | [FA]4 G4 | F4 G4 | %24
 E4 A4 | [Ad]4 [Bd]2 [c_e]2 | [Ad]2 [Bd]c d2 [Bd]2 | [Gc]4 [Ac]2 [Bd]2 | [Gc]2 [Ac]B c2 A2 | %29
 B2 GA B2 d2 | [^ce]2 A4 G2 | A4 x4 | F4 F4 | E4 F4 | A8 | F4 x2 F2 | G4 A4 | A4 G4 | E8 :: A4 x4 | %40
 x4 B2 c2 | c2 [Bd]2 A2 B2 | G4 G4 | F4 F4 | F4 x4 | G8 | [Gce]4 x4 | x6 G2 | _A2 G2 x4 | %49
 x6 [EG]2 | [F_A]2 [EG]2 x2 =A2 | A2 G2 G4 | F4 G4 | F4 F4 | x6 c2 | B4 [Gc]2 G2 | %56
 [Ac]2 [Gd]2 [Ac]2 .[Gc]2 | c4 F2 A2 | A4 A4 | x8 | [Gc]4 x4 | A4 x4 | A4 A4 | G4 x4 | x8 | %65
 F4 x2 E2 | D2 Bc d2 d2 | ^c2 A2 A2 AG | [FA]4 [GA]4 | [FA]4 [G^c]4 | A4 G4 | [EA]2 [DA]2 G4 | %72
 [A^c]4 G4 | F4 F2 A2 | G4 A2 G2 | F4 G2 F2 | E4 [FA]2 [EB]2 | [FA]4 E2 G2 | [FA]8 :| x/4 | %80
[M:3/4] F2 F2 F2 | F2 F2 AB | A2 [FB]2 [GB]2 | A2 AG[I:staff +1]F[I:staff -1]E | [DG]4 [EG]2 | %85
 [DA]2 [DG]4 | [EG]2 F2 F2 | F4 F2 | E2 A2 A2 | [Bd]4 [Gc]2 | [Ac]4 [FB]2 | [GB]4 [FA]2 | %92
 [EA]2 G2 E2 | [FA][GB] E2 G2 | F4 [EA]2 | [FA]E [DA]2 [DG]2 | [EA^c]6 |][M:3/8] [FA][GB]G | %98
 [EA][FA] x | A=cB | AAG | [FA]F[EA] | [DG]2 [FA] | [GB]2 [GB] | [EA]2 [FA] | [EA]2 [FA] | E2 G | %107
 FA=c | x2 =B | A2 =c | B=B.d | c [^ce]2 | d2 x | x G2 | A2 A | x A2 | x [Bd]2 | B2 (A | %118
 [Bd]2) [Bd] | [A^c]3 :: [A=c][Bd][Ac] | [Gc][Ac] x | [Ac]Bc | c2 [Gc] | [Ac]B[Fc] | F2 x | =BcG | %127
 G2 A | [Gc]2 [Ac] | [Gc]2 [Bc] | [Ac][Bd]B | c2 c | c=B[FB] | [Gc]2 [Ac] | [Gd] [Gc]2 | [Ac]2 x | %136
 x/ A/FF | G2 G | A2 A | ^GE[EA] | [FA]A^G | [EA]2 A | x2 [Gd] | [Ad][Bd][Bc] | cd x | GAF | F2 E | %147
 D2 c | BG[FA] | [EA] [FA]2 | G[I:staff +1]G[I:staff -1]=B | GAA | AA=c | x A2 | [EA]2 [FA] | EEG | %156
 [FA][GB]G | G2 A | A2 x | A2 G | [FA] [EA]2 | [FA]2 x | x [FA][EA] | [FA]2 x :| %164
V:5
 DD, z/ F/E/>D/ ^CDTB,>A, | A,A,, z/ A,/=B,/^C/ D/A,/_B,/G,/ A,A,, | DD, z/ F/E/D/ ^CDB,G, | %3
 A,/>^C/D/>E/ A,2 z/ F/E/D/ CA, | DD, E,/>C,/D,/>E,/ F,G,A,F, | G,B,/A,/ ^G,E, A,=B, ^C/F/E/D/ | %6
 ^C/A,/D/G,/ A,A,, D,E,F,D, | ^C,2 z/ A,/=B,/^C/ DD,/E,/ F,D, | E,2 z/ E,/^F,/^G,/ A,=B,=CA, | %9
 ^G,A,F,>F, E,/C/=B,/A,/ G,/A,/G,/^F,/ | E,A,EE, A,=B,CA, | D2 z ^F, G,/A,/G,/=F,/ E,/F,/E,/D,/ | %12
 C,2 z C F/F,/F,/G,/ A,/F,/G,/A,/ | B,,/G,/G,/A,/ =B,/G,/A,/B,/ C/C,/D,/E,/ F,/A,/G,/F,/ | %14
 E,F,CC, F,G,A,F, | C2 z/ C,/D,/E,/ F,G,A,D, | A,2 z/ A,/=B,/^C/ D/D,/D,/D/ C/E/A,/C/ | %17
 DCB,B,, A,,/A,/=B,/^C/ D/D,/E,/^F,/ | G,_B,/A,/ ^G,E, A,=B,^CA, | DF/G/ AA, _B,2 z/ F/E/D/ | %20
 ^C/A,/D/(G,/ A,)A,, D,4 ||[M:2/2] D,2 D2 ^C2 A,2 | D2 D,2 E,2 E2 | F,2 G,A, B,2 G,2 | %24
 A,2 A,,2 A,2 G,2 | ^F,2 D,2 G,2 C2 | D2 G,A, B,2 G,2 | E,2 C,2 F,2 B,2 | C2 F,G, A,2 F,2 | %29
 G,2 B,A, G,2 B,2 | A,2 G,2 F,2 E,2 | D,4 E,4 | F,4 G,4 | A,2 G,2 F,2 G,2 | A,4 A,,4 | D,4 z2 D2 | %36
 C2 C,2 C2 B,A, | B,2 B,,2 B,2 A,G, | A,8 :: F,2 F2 E2 C2 | F2 F,2 G,2 E2 | A,2 B,C D2 B,2 | %42
 C2 C,2 C2 B,2 | A,4 F,4 | B,,4 z4 | =B,4 G,4 | C4 z4 | z4 z2 E2 | F2 C2 z4 | z4 z2 C,2 | %50
 F,2 C,2 z2 F,2 | B,,4 C,4 | D,4 E,4 | F,4 D,4 | C,4 z2 C2 | G2 F2 E2 C2 | F2 B,2 C2 C,2 | %57
 F,2 G,2 A,2 F,2 | D,4 ^F,4 | G,4 z4 | C,4 E,4 | F,4 z4 | =B,4 D4 | z8 | A,4 ^C4 | D4 z2 A,2 | %66
 B,2 G,A, B,2 G,2 | A,D^C=B, A,G,F,E, | D,2 D2 ^C2 A,2 | D2 D,2 E,2 E2 | F,2 G,A, B,2 G,2 | %71
 A,2 F,2 B,2 G,2 | A,4 A,,4 | D,4 D2 CB, | C2 C,2 C2 B,A, | B,2 B,,2 B,2 A,G, | A,2 ^C2 D2 G,2 | %77
 A,4 A,,4 | D,8 :| z/8 |[M:3/4] F,2 F,2 F,2 | F,E,F,G,A,G, | F,2 D,2 E,2 | (F,C)(FE)(FC) | %84
 =B,2 G,2 C2 | F,2 G,2 G,,2 | C,CA,G,A,F, | B,4 G,2 | A,2 z A,D=C | B,2 z G,CB, | A,2 z F,B,A, | %91
 G,4 E,2 | A,2 E2 ^C2 | DG, A,2 A,,2 | D,4 A,2 | DC B,3 B, | A,6 |][M:3/8] DG,B, | A,D, z | FEC | %100
 FF,E, | D,DC | B,2 A, | G,B,G, | A,^CD | A,^CD | A,^C,A,, | D,^F,D, | G,E,^G, | A,D,D, | G,GF | %111
 EA,G, | F,2 z | z E/D/^C/=B,/ | A,^CD | G, A, z | D,G,B, | CC,F, | B,,B,G, | A,3 :: F,B,G, | %121
 CF, z | FGE | F/F,/A,/F,/C/C,/ | F,G,A, | B,B,, z | G,A,=B, | CEF | CEF | C/C,/E,/G,/C,/E,/ | %130
 F,B,G, | A,C,E, | F,D,G, | E,C,F, | B,CC, | F,2 z | z/ F,/(A,/G,/)A,/B,/ | C,/C/E/D/C/B,/ | %138
 A,2 D, | E,^G,A, | DEE, | A,,A,^F, | G,CB, | DG,/C,/D,/E,/ | F,B,G, | CF,/(G,/F,/)E,/ | D,DC | %147
 B,2 (A, | G,)B,G, | A,D,D, | G,GF | EA,G, | F,D,D, | G,^F,G, | ^C,A,,D, | G,A,A,, | D,G,B, | %157
 CC,F, | B,B,,E, | A,^CA, | DA,A,, | D,2 z | z F,A, | D,2 z :| %164
V:6
 x8 | x8 | x8 | x8 | x8 | x8 | x8 | x8 | x8 | x8 | x8 | x8 | x8 | x8 | x8 | x4 c2 x2 | x8 | x8 | %18
 x8 | x8 | x8 ||[M:2/2] x8 | x8 | x4 G2 B2 | x8 | x8 | x8 | x8 | x8 | x8 | x8 | x8 | x8 | %33
 x4 A2 B2 | E8 | x8 | x8 | x8 | x8 :: x8 | x4 B4 | x8 | x8 | x8 | x8 | x8 | x8 | x8 | x8 | x8 | %50
 x8 | x4 c2 B2 | x8 | x8 | x8 | x8 | x8 | x8 | x8 | x8 | x8 | x8 | x8 | x8 | x8 | x8 | x8 | x8 | %68
 x8 | x8 | x4 G2 B2 | x8 | x8 | x8 | x8 | x8 | x8 | x8 | x8 :| x/4 |[M:3/4] x6 | x6 | x6 | x6 | %84
 x6 | x6 | x6 | x6 | x6 | x6 | x6 | x6 | x6 | x6 | x6 | x6 | x6 |][M:3/8] x3 | x3 | x3 | x3 | x3 | %102
 x3 | x3 | x3 | x3 | x3 | x3 | x3 | x3 | x3 | x3 | x3 | x3 | x3 | x3 | x3 | x3 | x3 | x3 :: x3 | %121
 x3 | x3 | x3 | x3 | x3 | x3 | x3 | x3 | x3 | x3 | x3 | x3 | x3 | x3 | x3 | x3 | x3 | x3 | x3 | %140
 x3 | x3 | x3 | x3 | A2 B | x3 | x3 | x3 | x3 | x3 | x3 | x3 | x3 | x3 | x3 | x3 | x3 | x3 | x3 | %159
 x3 | x3 | x3 | x3 | x3 :| %164
V:7
 x8 | x8 | x8 | x8 | x8 | x8 | x8 | x8 | x8 | x8 | x8 | x8 | x8 | x8 | x8 | x8 | x8 | x8 | x8 | %19
 x8 | x8 ||[M:2/2] x8 | x8 | x8 | x8 | x8 | x8 | x8 | x8 | x8 | x8 | x8 | x8 | x8 | x8 | x8 | x8 | %37
 x8 | x8 :: x8 | x8 | x8 | x8 | x8 | x8 | x8 | x8 | x8 | x8 | x8 | x8 | x8 | x8 | x8 | x8 | x8 | %56
 x8 | x8 | x4 d2 a2 | x8 | x8 | x8 | x8 | x8 | x8 | x8 | x8 | x8 | x8 | x8 | x8 | x8 | x8 | x8 | %74
 x8 | x8 | x8 | x8 | x8 :| x/4 |[M:3/4] x6 | x6 | x6 | x6 | x6 | x6 | x6 | x6 | x6 | x6 | x6 | x6 | %92
 x6 | x6 | x6 | x6 | x6 |][M:3/8] x3 | x3 | x3 | x3 | x3 | x3 | x3 | x3 | x3 | x3 | x3 | x3 | x3 | %110
 x3 | x3 | x3 | x3 | x3 | x3 | x3 | x3 | x3 | x3 :: x3 | x3 | x3 | x3 | x3 | x3 | x3 | x3 | x3 | %129
 x3 | x3 | x3 | x3 | x3 | x3 | x3 | x3 | x3 | x3 | x3 | x3 | x3 | x3 | x3 | x3 | x3 | x3 | x3 | %148
 x3 | x3 | x3 | x3 | x3 | x3 | x3 | x3 | x3 | x3 | x3 | x3 | x3 | x3 | x3 | x3 :| %164

